X:7
T:Garden of Daisies
Z: id:dc-setdance-8
M:C|
L:1/8
K:D Major
fg|a2af gbag|fefa gfef|dcde fdec|dedc AGFG|!
AB=cA d^cAG|FEFG AB=cA|dcdf edce|d2dc d2:|!
A2|dcde fefg|a2af defg|a2af gbag|fgfe defg|!
a2af gbag|fefa gfef|dcde fdec|dedc A2|]!

